app/assets/images/heroicons/micro/newspaper.svg

<svg width="16" height="16" viewBox="0 0 16 16" fill="none" xmlns="http://www.w3.org/2000/svg">
<path fill-rule="evenodd" clip-rule="evenodd" d="M10 3C10 2.44772 9.55229 2 9 2H3C2.44772 2 2 2.44772 2 3V12C2 13.1046 2.89543 14 4 14H12C10.8954 14 10 13.1046 10 12V3ZM4 4H8V6H4V4ZM8 7.5H4V9H8V7.5ZM4 10.5H8V12H4V10.5Z" fill="black"/>
<path d="M13 5H11.5V11.25C11.5 11.9404 12.0596 12.5 12.75 12.5C13.4404 12.5 14 11.9404 14 11.25V6C14 5.44772 13.5523 5 13 5Z" fill="black"/>
</svg>

<svg xmlns="http://www.w3.org/2000/svg" viewBox="0 0 16 16" fill="currentColor" aria-hidden="true" data-slot="icon">
  <path fill-rule="evenodd" d="M10 3a1 1 0 0 0-1-1H3a1 1 0 0 0-1 1v9a2 2 0 0 0 2 2h8a2 2 0 0 1-2-2V3ZM4 4h4v2H4V4Zm4 3.5H4V9h4V7.5Zm-4 3h4V12H4v-1.5Z" clip-rule="evenodd"/>
  <path d="M13 5h-1.5v6.25a1.25 1.25 0 1 0 2.5 0V6a1 1 0 0 0-1-1Z"/>
</svg>
